icons/copilot-48.svg

<svg width="48" height="48" viewBox="0 0 48 48" fill="none" xmlns="http://www.w3.org/2000/svg">
<g clip-path="url(#clip0_9249_119368)">
<path fill-rule="evenodd" clip-rule="evenodd" d="M47.8011 34.0032C46.0813 36.9908 36.0951 44.0401 23.9811 44.0401C11.8672 44.0401 1.88097 36.9908 0.161178 34.0032C0.0354083 33.7847 -0.00518799 33.5353 -0.00518799 33.2832V27.9647C-0.00518799 27.7443 0.0288457 27.5252 0.110422 27.3203C0.854123 25.4529 2.80185 22.7403 5.31553 22.0124C5.64878 21.1569 6.14236 19.9063 6.60289 18.9831C6.5258 18.2768 6.49867 17.5483 6.49867 16.8122C6.49867 14.1529 7.06233 11.8204 8.76079 10.0834C9.55408 9.27212 10.5384 8.6498 11.7058 8.18199C14.5015 5.91072 18.4826 4 23.938 4C29.3933 4 33.4608 5.91072 36.2565 8.18199C37.4239 8.6498 38.4082 9.27212 39.2015 10.0834C40.8999 11.8204 41.4636 14.1529 41.4636 16.8122C41.4636 17.5483 41.4365 18.2768 41.3594 18.9831C41.8199 19.9063 42.3135 21.1569 42.6468 22.0124C45.1604 22.7403 47.1082 25.4529 47.8519 27.3203C47.9334 27.5252 47.9675 27.7443 47.9675 27.9647V33.2832C47.9675 33.5353 47.9269 33.7847 47.8011 34.0032ZM25.606 16.1675C25.521 15.5051 25.4806 14.912 25.4794 14.382L25.4794 14.3401C25.4821 12.8027 25.8181 11.8023 26.3549 11.188C27.0367 10.4078 28.4456 9.81004 31.4151 10.1314C34.4236 10.457 36.1052 11.2037 37.0586 12.1787C37.9817 13.1227 38.4666 14.535 38.4666 16.8122C38.4666 19.2317 38.1179 20.6611 37.3512 21.5307C36.6222 22.3576 35.1867 23.0304 32.0424 23.0304C29.6252 23.0304 28.2432 22.2442 27.3596 21.1569C26.4109 19.9894 25.877 18.279 25.606 16.1675ZM22.3563 16.1675C22.4413 15.5051 22.4817 14.912 22.4829 14.382L22.4829 14.3401C22.4802 12.8027 22.1442 11.8023 21.6073 11.1879C20.9256 10.4078 19.5167 9.81003 16.5472 10.1314C13.5387 10.457 11.857 11.2037 10.9037 12.1787C9.98063 13.1227 9.4957 14.535 9.4957 16.8122C9.4957 19.2317 9.84439 20.6611 10.6111 21.5307C11.3401 22.3576 12.7756 23.0304 15.9199 23.0304C18.3371 23.0304 19.7191 22.2442 20.6027 21.1569C21.5514 19.9894 22.0853 18.279 22.3563 16.1675ZM24.3253 22.0305C24.2105 22.0311 24.4399 22.0305 24.3253 22.0305C24.2106 22.0305 23.7518 22.0311 23.637 22.0305C23.4255 22.3848 23.1903 22.7247 22.9285 23.0469C21.3907 24.9394 19.0952 26.0274 15.9199 26.0274C12.4734 26.0274 9.94765 25.3101 8.36299 23.5127C8.2729 23.4105 8.19229 23.3035 8.19229 23.3035L7.99717 23.5127V36.6678C10.8639 38.2258 17.0169 41.0215 23.9811 41.0215C30.9454 41.0215 37.0984 38.2258 39.9651 36.6678V23.5127L39.77 23.3035C39.77 23.3035 39.704 23.394 39.5993 23.5127C38.0146 25.3101 35.4888 26.0274 32.0424 26.0274C28.8671 26.0274 26.5716 24.9394 25.0338 23.0469C24.772 22.7247 24.5367 22.3848 24.3253 22.0305Z" fill="black"/>
<path fill-rule="evenodd" clip-rule="evenodd" d="M28.9979 28.516C30.102 28.516 30.997 29.4111 30.997 30.5152V34.5134C30.997 35.6175 30.102 36.5126 28.9979 36.5126C27.8938 36.5126 26.9987 35.6175 26.9987 34.5134V30.5152C26.9987 29.4111 27.8938 28.516 28.9979 28.516Z" fill="black"/>
<path fill-rule="evenodd" clip-rule="evenodd" d="M19.0022 28.516C20.1063 28.516 21.0013 29.4111 21.0013 30.5152V34.5134C21.0013 35.6175 20.1063 36.5126 19.0022 36.5126C17.8981 36.5126 17.0031 35.6175 17.0031 34.5134V30.5152C17.0031 29.4111 17.8981 28.516 19.0022 28.516Z" fill="black"/>
</g>
<defs>
<clipPath id="clip0_9249_119368">
<rect width="48" height="48" fill="white"/>
</clipPath>
</defs>
</svg>

<svg xmlns="http://www.w3.org/2000/svg" width="48" height="48" viewBox="0 0 48 48"><path d="M47.801 34.003c-1.72 2.988-11.706 10.037-23.82 10.037S1.881 36.991.161 34.003a1.309 1.309 0 0 1-.161-.57v-5.615c.012-.17.047-.338.11-.498.744-1.867 2.692-4.58 5.206-5.308.333-.855.826-2.106 1.287-3.029a20.112 20.112 0 0 1-.104-2.171c0-2.659.563-4.992 2.262-6.729.793-.811 1.777-1.433 2.945-1.901C14.502 5.911 18.483 4 23.938 4c5.455 0 9.523 1.911 12.319 4.182 1.167.468 2.151 1.09 2.944 1.901 1.699 1.737 2.263 4.07 2.263 6.729 0 .736-.027 1.465-.105 2.171.461.923.954 2.174 1.288 3.029 2.513.728 4.461 3.441 5.205 5.308.081.205.115.424.115.645v5.318c0 .252-.04.502-.166.72ZM24.325 22.031h-.688a8.52 8.52 0 0 1-.709 1.016c-1.537 1.892-3.833 2.98-7.008 2.98-3.447 0-5.972-.717-7.557-2.514a4.408 4.408 0 0 1-.171-.21l-.195.21v13.155c2.867 1.558 9.02 4.353 15.984 4.353s13.117-2.795 15.984-4.353V23.513l-.195-.21s-.066.091-.171.21c-1.584 1.797-4.11 2.514-7.557 2.514-3.175 0-5.47-1.088-7.008-2.98a8.637 8.637 0 0 1-.709-1.016h-.033.033Zm-1.969-5.864a14.31 14.31 0 0 0 .127-1.785v-.042c-.003-1.537-.339-2.538-.876-3.152-.681-.78-2.09-1.378-5.06-1.057-3.008.326-4.69 1.073-5.643 2.048-.923.944-1.408 2.356-1.408 4.633 0 2.42.348 3.849 1.115 4.719.729.827 2.165 1.499 5.309 1.499 2.417 0 3.799-.786 4.683-1.873.948-1.168 1.482-2.878 1.753-4.99Zm3.25 0c.271 2.112.805 3.822 1.754 4.99.883 1.087 2.265 1.873 4.682 1.873 3.145 0 4.58-.672 5.309-1.499.767-.87 1.116-2.299 1.116-4.719 0-2.277-.485-3.689-1.408-4.633-.954-.975-2.635-1.722-5.644-2.048-2.969-.321-4.378.277-5.06 1.057-.537.614-.873 1.615-.876 3.152v.042c.002.53.042 1.123.127 1.785Z"/><path d="M28.998 28.516c1.104 0 1.999.895 1.999 1.999v3.998a2 2 0 1 1-3.998 0v-3.998c0-1.104.895-1.999 1.999-1.999Zm-9.996 0c1.104 0 1.999.895 1.999 1.999v3.998a2 2 0 1 1-3.998 0v-3.998c0-1.104.895-1.999 1.999-1.999Z"/></svg>
